remix/Logos/visa-fill.svg

<svg viewBox="0 0 24 24" fill="currentColor" xmlns="http://www.w3.org/2000/svg"><path d="M1 4H23V6H1V4ZM1 18H23V20H1V18ZM19.6217 14.9136L19.448 14.0436L17.4994 14.0435L17.1899 14.907L15.6275 14.9105C16.6316 12.5036 17.3767 10.7206 17.8628 9.56169C17.9898 9.25902 18.2156 9.10462 18.5482 9.10699C18.802 9.10888 19.2168 9.10912 19.7927 9.10771L21 14.9108L19.6217 14.9136ZM17.9376 12.8518H19.1936L18.7248 10.6715L17.9376 12.8518ZM7.87203 9.10561L9.44245 9.10764L7.01511 14.9136L5.42535 14.9129C4.88785 12.8424 4.49315 11.3073 4.24125 10.3076C4.16402 10.001 4.01042 9.787 3.71519 9.68577C3.45195 9.59551 3.01355 9.45594 2.4 9.26707V9.10771C3.54718 9.10757 4.38339 9.10757 4.90863 9.10771C5.34299 9.10784 5.59619 9.31703 5.67765 9.74655C5.75942 10.1779 5.96599 11.2743 6.29735 13.0359L7.87203 9.10561ZM11.5994 9.10765L10.3588 14.913L8.86434 14.9108C8.89383 14.7698 9.30682 12.8347 10.1033 9.10561L11.5994 9.10765ZM14.6307 9C15.0773 9 15.6405 9.13846 15.9652 9.26707L15.703 10.4706C15.41 10.3532 14.9284 10.1944 14.5228 10.2006C13.933 10.2097 13.569 10.4566 13.569 10.6936C13.569 11.0783 14.2015 11.272 14.8528 11.6929C15.5956 12.1729 15.6937 12.603 15.6845 13.0713C15.6739 14.0422 14.8528 15 13.12 15C12.3286 14.9882 12.0444 14.9219 11.3995 14.6936L11.6718 13.4376C12.3282 13.712 12.6066 13.7991 13.1675 13.7991C13.6816 13.7991 14.1229 13.5918 14.1267 13.2308C14.1294 12.974 13.972 12.847 13.395 12.5293C12.8181 12.2117 12.0095 11.7726 12.0199 10.8889C12.0332 9.75821 13.1066 9 14.6307 9Z"/></svg>

<svg viewBox="0 0 24 24" xmlns="http://www.w3.org/2000/svg"><path fill="none" d="M0 0h24v24H0Z"/><path d="M1 4h22v2H1V4Zm0 14h22v2H1v-2Zm18.622-3.09l-.18-.87h-1.95l-.31.86 -1.57 0c1-2.41 1.75-4.19 2.23-5.35 .12-.31.35-.46.68-.46 .25 0 .66 0 1.24 0l1.2 5.805 -1.38 0Zm-1.69-2.07h1.25l-.47-2.18 -.79 2.18ZM7.86 9.09l1.57 0L7 14.89l-1.59-.01c-.54-2.07-.94-3.606-1.19-4.61 -.08-.31-.23-.53-.53-.63 -.27-.09-.71-.23-1.315-.42v-.16H4.88c.43 0 .68.21.76.64l.62 3.28 1.57-3.93Zm3.72 0l-1.24 5.805 -1.5-.01 1.24-5.805 1.49 0Zm3.03-.11c.44 0 1.01.13 1.33.26l-.27 1.2c-.3-.12-.78-.28-1.18-.27 -.59 0-.96.25-.96.49 0 .38.63.57 1.28.99 .74.48.84.91.83 1.37 -.01.97-.84 1.92-2.564 1.92 -.8-.02-1.08-.08-1.72-.31l.27-1.26c.65.27.93.36 1.49.36 .51 0 .95-.21.96-.57 0-.26-.16-.39-.74-.702 -.577-.32-1.39-.76-1.375-1.64 .01-1.13 1.08-1.89 2.61-1.89Z"/></svg>
